X:3393
T:Norwegian Waltz (Vals)
C:Blasin' fiddles
R:Vals
N: Fra CD-en "Thursday Night in the Caley"
Z: Ulf Bjørkelo
M:3/4
L:1/8
K: G
|v D2 (BD) d2  |D2 (BD) d2| (cB) (Ac) eg| gf ge dd| D2 (BD) d2|
 D2 (BD) d2 | cB AD FA |1G2 zF GE:|2G2 zA Bc|:  d2 ba g2 | f6| g4 a2| c4 cB|
 A3 G AB| c2 cA ce |g3 e ce | fe dc Bc |d2 ba g2 | f6| g4 a2| c4 cB|
A3 G AB| c2 cD FA| G2 AG AB| G6:|]
(:musicend:)
(:music:)
